X: 30
T: DA BRIDE'S A BOANNIE TING
S: Debbie Scott, Bells Brae
R: jig
B: Haand me doon da fiddle, 1979
Z: 2012 John Chambers <jc:trillian.mit.edu>
M: 6/8
L: 1/8
K: G
|:\
vMG3 uMG3 | (AFA) (ABc) | G3 G3 | e(^ce) d(Bd) |\
G3 G3 | AFA ABc | dBd (cBA) | G3 G3 :|
|:\
def {gf}g2e | f2A (ABA) | d3 gdB | def {gf}gdB |\
def ({gf}gfe) | g2A ABc | dBd (cBA) | G3 G3 :|
%%begintext align
Dis is annider wedding t\"un frae Unst.  Some says hit wis played
whin da bride can trow da door o' da hoose efter da procession
fae da kirk an some says it wis annider march at dey played on
da wye fae da kirk.  Dey were leakly bride's marches in every
district o' Shetland at wan time bit a lok o' dem haes been lost,
mair's da peety.
%%endtext

%%sep 2 1 500
%%sep 1 1 500

